icons/git-branch-24.svg

<svg xmlns="http://www.w3.org/2000/svg" width="24" height="24" viewBox="0 0 24 24">
  <defs/>
  <path d="M15,4.75 C15,2.955 16.455,1.5 18.25,1.5 C20.045,1.5 21.5,2.955 21.5,4.75 C21.5,6.545 20.045,8 18.25,8 C16.455,8 15,6.545 15,4.75 Z M2.5,19.25 C2.5,17.455 3.955,16 5.75,16 C7.545,16 9,17.455 9,19.25 C9,21.045 7.545,22.5 5.75,22.5 C3.955,22.5 2.5,21.045 2.5,19.25 Z M2.5,4.75 C2.5,2.955 3.955,1.5 5.75,1.5 C7.545,1.5 9,2.955 9,4.75 C9,6.545 7.545,8 5.75,8 C3.955,8 2.5,6.545 2.5,4.75 Z M5.75,6.5 C6.716,6.5 7.5,5.716 7.5,4.75 C7.5,3.784 6.716,3 5.75,3 C4.784,3 4,3.784 4,4.75 C4,5.716 4.784,6.5 5.75,6.5 Z M5.75,21 C6.716,21 7.5,20.216 7.5,19.25 C7.5,18.284 6.716,17.5 5.75,17.5 C4.784,17.5 4,18.284 4,19.25 C4,20.216 4.784,21 5.75,21 Z M18.25,6.5 C19.216,6.5 20,5.716 20,4.75 C20,3.784 19.216,3 18.25,3 C17.284,3 16.5,3.784 16.5,4.75 C16.5,5.716 17.284,6.5 18.25,6.5 Z"/>
  <path d="M5.75,16.75 C5.336,16.75 5,16.414 5,16 L5,8 C5,7.586 5.336,7.25 5.75,7.25 C6.164,7.25 6.5,7.586 6.5,8 L6.5,16 C6.5,16.414 6.164,16.75 5.75,16.75 Z"/>
  <path d="M17.5,8.75 L17.5,7.75 L19,7.75 L19,8.75 C19,10.821 17.321,12.5 15.25,12.5 L8.25,12.5 C7.284,12.5 6.5,13.284 6.5,14.25 L5,14.25 C5,12.455 6.455,11 8.25,11 L15.25,11 C16.493,11 17.5,9.993 17.5,8.75 Z"/>
</svg>

<svg xmlns="http://www.w3.org/2000/svg" width="24" height="24" viewBox="0 0 24 24"><path d="M15 4.75a3.25 3.25 0 116.5 0 3.25 3.25 0 01-6.5 0zM2.5 19.25a3.25 3.25 0 116.5 0 3.25 3.25 0 01-6.5 0zm0-14.5a3.25 3.25 0 116.5 0 3.25 3.25 0 01-6.5 0zM5.75 6.5a1.75 1.75 0 10-.001-3.501A1.75 1.75 0 005.75 6.5zm0 14.5a1.75 1.75 0 10-.001-3.501A1.75 1.75 0 005.75 21zm12.5-14.5a1.75 1.75 0 10-.001-3.501A1.75 1.75 0 0018.25 6.5z"/><path d="M5.75 16.75A.75.75 0 015 16V8a.75.75 0 011.5 0v8a.75.75 0 01-.75.75z"/><path d="M17.5 8.75v-1H19v1a3.75 3.75 0 01-3.75 3.75h-7a1.75 1.75 0 00-1.75 1.75H5A3.25 3.25 0 018.25 11h7a2.25 2.25 0 002.25-2.25z"/></svg>
